resources/images/piesze.svg

<svg width="54" height="60" viewBox="0 0 54 60" fill="none" xmlns="http://www.w3.org/2000/svg">
<g id="piesze">
<g id="Group">
<path id="Vector" d="M53.1332 58.2422H40.5455C40.5754 58.0968 40.5913 57.9463 40.5913 57.792V47.9297C40.5913 47.4443 40.2033 47.0508 39.7244 47.0508C39.2456 47.0508 38.8576 47.4443 38.8576 47.9297V57.792C38.8576 58.0402 38.6585 58.2422 38.4137 58.2422C38.1689 58.2422 37.9696 58.0402 37.9696 57.792V29.0039H38.8576V44.2969C38.8576 44.7823 39.2456 45.1758 39.7244 45.1758C40.2033 45.1758 40.5913 44.7823 40.5913 44.2969V28.5265C40.8268 28.2657 40.972 27.9197 40.972 27.5391V23.5846C40.972 23.2039 40.8268 22.8579 40.5913 22.5971V21.6687C40.5913 20.4512 39.6144 19.4606 38.4137 19.4606C37.2128 19.4606 36.236 20.4512 36.236 21.6687V22.3194H29.0269C28.3486 22.3194 27.0287 21.7651 26.5493 21.2788L26.1516 20.8755V19.0699C26.1516 17.4229 25.5054 15.9267 24.458 14.8254C26.4816 13.5389 27.8308 11.2593 27.8308 8.66426C27.8308 8.51215 27.8253 8.36145 27.8162 8.21168H32.0855C32.5643 8.21168 32.9523 7.81816 32.9523 7.33277C32.9523 6.84738 32.5643 6.45387 32.0855 6.45387H27.6994V5.78379C27.6994 2.59453 25.1404 0 21.995 0H19.1943C16.0489 0 13.49 2.59453 13.49 5.78367C13.49 5.78367 13.49 8.60801 13.49 8.66414C13.49 10.9833 14.5669 13.0515 16.2401 14.3835C15.8004 14.758 15.4126 15.1931 15.0926 15.6785H9.78525C8.4887 15.6785 7.43383 16.748 7.43383 18.0626V18.2085H4.9377C4.45886 18.2085 4.07087 18.602 4.07087 19.0874C4.07087 19.5728 4.45886 19.9663 4.9377 19.9663H7.43394V21.2708H6.5136C6.03476 21.2708 5.64677 21.6643 5.64677 22.1497C5.64677 22.6351 6.03476 23.0286 6.5136 23.0286H7.43394V24.8153C6.80751 25.2441 6.39479 25.9703 6.39479 26.7927V32.3619C6.39479 33.6765 7.44966 34.746 8.74621 34.746H10.676C11.0899 34.746 11.4786 34.6361 11.8168 34.4449H14.0783V35.0134C14.0783 35.31 14.2235 35.5718 14.4456 35.7309V37.0161H12.0293C11.5505 37.0161 11.1625 37.4096 11.1625 37.895C11.1625 38.3804 11.5505 38.7739 12.0293 38.7739H14.4457V39.9455H12.9486C12.4698 39.9455 12.0818 40.339 12.0818 40.8244C12.0818 41.3098 12.4698 41.7033 12.9486 41.7033H13.4565L5.72201 52.4209C5.65347 52.487 5.58944 52.5585 5.5342 52.6385L4.69071 53.8601C4.46973 54.18 4.38489 54.5687 4.45205 54.9544C4.51908 55.3402 4.72989 55.6761 5.04554 55.9001L8.34412 58.2422H0.866831C0.387994 58.2422 0 58.6357 0 59.1211C0 59.6065 0.387994 60 0.866831 60H53.1332C53.612 60 54 59.6065 54 59.1211C54 58.6357 53.612 58.2422 53.1332 58.2422ZM11.2938 32.362C11.2938 32.7074 11.0167 32.9883 10.676 32.9883H8.74621C8.40561 32.9883 8.12845 32.7074 8.12845 32.362V26.7928C8.12845 26.4475 8.40549 26.1664 8.74621 26.1664H10.676C11.0166 26.1664 11.2938 26.4475 11.2938 26.7928V32.362ZM14.0784 19.0699V32.6873H13.0029C13.0174 32.5807 13.0274 32.4727 13.0274 32.3621V26.7929C13.0274 25.4783 11.9726 24.4087 10.676 24.4087H9.16761V23.0289H9.7967C10.2755 23.0289 10.6635 22.6354 10.6635 22.15C10.6635 21.6646 10.2755 21.2711 9.7967 21.2711H9.16761V19.9664H9.7967C10.2755 19.9664 10.6635 19.5729 10.6635 19.0875C10.6635 18.6021 10.2755 18.2086 9.7967 18.2086H9.16761V18.0627C9.16761 17.7173 9.44465 17.4364 9.78537 17.4364H14.0904C14.1601 17.4364 14.2257 17.4507 14.2883 17.4724C14.1522 17.982 14.0784 18.5173 14.0784 19.0699ZM25.3234 22.5216C26.1262 23.3358 27.8915 24.0773 29.0271 24.0773H35.5613V26.3141H29.0271C27.298 26.3141 24.986 25.3431 23.7634 24.1035L20.6775 20.9746C20.4691 20.7633 20.3544 20.4825 20.3544 20.1837C20.3544 19.8848 20.4691 19.6041 20.6775 19.3928C20.8858 19.1815 21.1628 19.0651 21.4574 19.0651C21.7521 19.0651 22.0291 19.1815 22.2373 19.3927L25.3234 22.5216ZM15.812 27.8617V26.5491C16.5886 26.7786 17.3931 26.8945 18.2162 26.8945C19.8517 26.8945 21.4218 26.4144 22.7646 25.5647C22.9329 25.7203 23.1121 25.8711 23.3011 26.0164C22.0181 27.4448 20.1816 28.3008 18.2162 28.3008C17.3857 28.3008 16.5796 28.1532 15.812 27.8617ZM15.2238 5.78367C15.2238 3.56379 17.0049 1.75781 19.1943 1.75781H21.995C24.1844 1.75781 25.9655 3.56391 25.9655 5.78367V6.45375H15.2236L15.2238 5.78367ZM15.2238 8.66426C15.2238 8.51168 15.2322 8.36109 15.2444 8.21168H26.0765C26.0886 8.36109 26.0972 8.51168 26.0972 8.66426C26.0972 10.8775 24.8032 12.7883 22.9427 13.6644C22.0985 13.2087 21.1362 12.9492 20.115 12.9492C19.3205 12.9492 18.5621 13.1064 17.8668 13.3904C16.2846 12.4256 15.2238 10.6685 15.2238 8.66426ZM15.8118 19.0699H15.812C15.812 16.6643 17.7423 14.707 20.1149 14.707C22.4876 14.707 24.4178 16.6642 24.4178 19.0699V19.1179L23.4632 18.1499C22.9273 17.6066 22.215 17.3074 21.4573 17.3074C20.6996 17.3074 19.9872 17.6066 19.4515 18.1499C18.9156 18.6932 18.6206 19.4154 18.6206 20.1837C18.6206 20.952 18.9156 21.6742 19.4515 22.2175L21.4915 24.2859C20.5019 24.8321 19.3797 25.1367 18.2159 25.1367C17.3854 25.1367 16.5796 24.986 15.8118 24.694V19.0699ZM10.8805 57.8972L6.27644 54.6286L6.78856 53.8869L11.3925 57.1556L10.8805 57.8972ZM26.8692 57.0439V58.2422H12.7584L12.978 57.924C13.1992 57.604 13.2839 57.2153 13.2169 56.8294C13.1498 56.4436 12.939 56.1076 12.6234 55.8837L12.1318 55.5347L14.5393 52.1987C14.822 51.8069 14.738 51.257 14.3516 50.9705C13.9653 50.6838 13.4228 50.7689 13.1401 51.1608L10.7113 54.5263L7.82795 52.4791L15.6043 41.7034H17.0192C17.4981 41.7034 17.8861 41.3099 17.8861 40.8245C17.8861 40.3391 17.4981 39.9456 17.0192 39.9456H16.179V38.7741H17.1505C17.6294 38.7741 18.0174 38.3805 18.0174 37.8952C18.0174 37.4098 17.6294 37.0163 17.1505 37.0163H16.179V35.8924H19.6981V40.1586C19.6981 41.268 19.2291 42.7229 18.5829 43.6184L15.1698 48.348C14.8871 48.7398 14.9711 49.2898 15.3575 49.5763C15.7437 49.8629 16.2863 49.7777 16.5688 49.386L19.982 44.6563C20.7857 43.5427 21.344 41.9089 21.4216 40.4905L24.8337 43.9501C24.889 44.0292 24.9909 44.2313 25.023 44.3251L26.9127 56.6933C26.8853 56.8059 26.8692 56.923 26.8692 57.0439ZM26.7297 44.0115C26.7279 43.9993 26.7258 43.9871 26.7234 43.9751C26.654 43.6207 26.3578 43.0316 26.1139 42.763C26.106 42.7541 26.0975 42.7453 26.0892 42.7368L21.4321 38.0149V35.8924H24.3155L28.5832 40.2195C29.3567 41.0037 30.0399 42.3687 30.2076 43.465L32.0585 55.5791H28.4973L26.7297 44.0115ZM34.2237 58.2422H28.6032V57.3369H34.2237V58.2422ZM35.9573 58.2422V57.0439C35.9573 56.2362 35.3093 55.5791 34.5126 55.5791H33.8129L31.9207 43.1958C31.6957 41.7245 30.8472 40.029 29.8093 38.9766L26.1221 35.238C26.1407 35.1663 26.1517 35.0912 26.1517 35.0135V32.6953C26.1517 32.2099 25.7637 31.8164 25.2849 31.8164C24.8061 31.8164 24.4181 32.2099 24.4181 32.6953V34.1346H15.8122V29.7091C16.589 29.9393 17.3928 30.0586 18.2162 30.0586C20.5938 30.0586 22.8212 29.059 24.4179 27.3787V29.0625C24.4179 29.5479 24.8059 29.9414 25.2848 29.9414C25.7636 29.9414 26.1516 29.5479 26.1516 29.0625V27.5364C27.1203 27.8763 28.1184 28.0718 29.0271 28.0718H35.6617C35.7748 28.3642 35.9775 28.6104 36.2361 28.7763V57.792C36.2361 57.9462 36.252 58.0968 36.2819 58.2422H35.9573ZM37.9696 21.6687C37.9696 21.4205 38.1689 21.2184 38.4137 21.2184C38.6585 21.2184 38.8576 21.4205 38.8576 21.6687V22.1197H37.9696V21.6687ZM37.295 23.8775H39.2384V27.2461H37.295V23.8775Z" fill="#1F294C"/>
</g>
</g>
</svg>

<svg width="54" height="60" fill="none" xmlns="http://www.w3.org/2000/svg"><path d="M53.133 58.242H40.545c.03-.145.046-.296.046-.45V47.93a.873.873 0 0 0-.867-.88.873.873 0 0 0-.866.88v9.862c0 .248-.2.45-.444.45a.448.448 0 0 1-.444-.45V29.004h.888v15.293c0 .485.388.879.866.879a.873.873 0 0 0 .867-.88v-15.77c.236-.26.381-.606.381-.987v-3.954c0-.381-.145-.727-.38-.988v-.928c0-1.218-.978-2.208-2.178-2.208-1.201 0-2.178.99-2.178 2.208v.65h-7.21c-.677 0-1.997-.554-2.477-1.04l-.397-.404V19.07a6.143 6.143 0 0 0-1.694-4.245 7.291 7.291 0 0 0 3.358-6.613h4.27a.873.873 0 0 0 .866-.88.873.873 0 0 0-.866-.878h-4.387v-.67C27.7 2.594 25.14 0 21.995 0h-2.8c-3.146 0-5.705 2.595-5.705 5.784v2.88a7.296 7.296 0 0 0 2.75 5.72c-.44.374-.827.81-1.147 1.294H9.785c-1.296 0-2.351 1.07-2.351 2.385v.146H4.938a.873.873 0 0 0-.867.878c0 .486.388.88.867.88h2.496v1.304h-.92a.873.873 0 0 0-.867.879c0 .485.388.879.867.879h.92v1.786a2.393 2.393 0 0 0-1.04 1.978v5.569c0 1.314 1.056 2.384 2.352 2.384h1.93c.414 0 .803-.11 1.14-.301h2.262v.568a.88.88 0 0 0 .368.718v1.285h-2.417a.873.873 0 0 0-.867.879c0 .485.388.879.867.879h2.417v1.172h-1.497a.873.873 0 0 0-.867.878c0 .486.388.88.867.88h.508L5.721 52.42a1.442 1.442 0 0 0-.188.218l-.843 1.221a1.47 1.47 0 0 0-.239 1.094c.067.386.278.722.594.946l3.298 2.342H.867a.873.873 0 0 0-.867.88c0 .484.388.878.867.878h52.266a.873.873 0 0 0 .867-.879.873.873 0 0 0-.867-.879Zm-41.84-25.88a.623.623 0 0 1-.617.626h-1.93a.623.623 0 0 1-.618-.626v-5.57c0-.345.277-.626.618-.626h1.93c.34 0 .618.282.618.627v5.569Zm2.785-13.292v13.617h-1.075c.014-.106.024-.214.024-.325v-5.57c0-1.314-1.054-2.383-2.351-2.383H9.168v-1.38h.629a.873.873 0 0 0 .867-.879.873.873 0 0 0-.867-.879h-.63v-1.305h.63a.873.873 0 0 0 .867-.879.873.873 0 0 0-.867-.878h-.63v-.146c0-.346.278-.627.618-.627h4.305a.6.6 0 0 1 .198.036 6.183 6.183 0 0 0-.21 1.598Zm11.245 3.452c.803.814 2.569 1.555 3.704 1.555h6.534v2.237h-6.534c-1.729 0-4.041-.97-5.264-2.21l-3.086-3.13a1.119 1.119 0 0 1-.323-.79c0-.3.115-.58.323-.791a1.088 1.088 0 0 1 1.56 0l3.086 3.129Zm-9.511 5.34v-1.313c.777.23 1.581.346 2.404.346 1.636 0 3.206-.48 4.549-1.33.168.155.347.306.536.451a6.842 6.842 0 0 1-5.085 2.285c-.83 0-1.636-.148-2.404-.44Zm-.588-22.078c0-2.22 1.78-4.026 3.97-4.026h2.801c2.19 0 3.97 1.806 3.97 4.026v.67H15.224v-.67Zm0 2.88c0-.152.008-.303.02-.452h10.832a5.522 5.522 0 0 1-3.134 5.453 5.934 5.934 0 0 0-5.075-.275 5.529 5.529 0 0 1-2.643-4.726Zm.588 10.406c0-2.406 1.93-4.363 4.303-4.363s4.303 1.957 4.303 4.363v.048l-.955-.968a2.799 2.799 0 0 0-2.006-.843c-.757 0-1.47.3-2.006.843a2.877 2.877 0 0 0-.83 2.034c0 .768.295 1.49.83 2.034l2.04 2.068c-.99.546-2.111.85-3.275.85-.83 0-1.636-.15-2.404-.442V19.07ZM10.88 57.897 6.275 54.63l.513-.742 4.604 3.269-.513.741Zm15.988-.853v1.198H12.76l.219-.318a1.47 1.47 0 0 0 .239-1.095 1.457 1.457 0 0 0-.594-.945l-.491-.35 2.407-3.335a.887.887 0 0 0-.187-1.228.859.859 0 0 0-1.212.19l-2.429 3.365-2.883-2.047 7.776-10.776h1.415a.873.873 0 0 0 .867-.879.873.873 0 0 0-.867-.878h-.84v-1.172h.972a.873.873 0 0 0 .866-.879.873.873 0 0 0-.866-.879h-.972v-1.124h3.52v4.267c0 1.109-.47 2.564-1.116 3.46l-3.413 4.729a.887.887 0 0 0 .188 1.228.859.859 0 0 0 1.21-.19l3.414-4.73c.804-1.113 1.362-2.747 1.44-4.166l3.412 3.46c.055.08.157.281.189.375l1.89 12.368a1.48 1.48 0 0 0-.044.35Zm-.14-13.032a.728.728 0 0 0-.006-.037c-.069-.354-.365-.943-.61-1.212a.764.764 0 0 0-.024-.026l-4.657-4.722v-2.123h2.884l4.267 4.327c.774.785 1.457 2.15 1.625 3.246l1.85 12.114h-3.56L26.73 44.011Zm7.495 14.23h-5.62v-.905h5.62v.905Zm1.733 0v-1.198c0-.808-.648-1.465-1.444-1.465h-.7L31.92 43.196c-.225-1.471-1.074-3.167-2.112-4.22l-3.687-3.738a.893.893 0 0 0 .03-.224v-2.319a.873.873 0 0 0-.867-.879.873.873 0 0 0-.867.88v1.439h-8.606v-4.426c.777.23 1.58.35 2.404.35 2.378 0 4.605-1 6.202-2.68v1.683c0 .486.388.88.867.88a.873.873 0 0 0 .867-.88v-1.526c.968.34 1.966.536 2.875.536h6.635c.113.292.316.538.574.704v29.016c0 .154.016.305.046.45h-.325ZM37.97 21.67c0-.248.199-.45.444-.45.244 0 .444.201.444.45v.45h-.888v-.45Zm-.675 2.209h1.943v3.368h-1.943v-3.368Z" fill="#1F294C"/></svg>
